X:1
T:Title
%%score 1 { 2 | 3 }
L:1/8
Q:1/4=110
M:4/4
K:F
V:1 treble nm="Grand Piano, Soprano"
V:2 treble nm="Choir Pad, Key West, CMD"
V:3 bass 
V:1
 C2 [CF]2 [FA]2 [Fc]2 | [Bd]2 [Ac][FA] [CF][EG] [FA]2 | [CF]2 [EG]2 [EG]2 F2 | [EG]2 [FA]6 | %4
w: By~Elizabeth~Manford~Clark,~1879 * * *||||
 C2 [CF]2 [FA]2 [Fc]2 | [Bd]2 [Ac][FA] [CF][EG] [FA]2 | [CF]2 D2 [DG]2 [CF]2 | [CE]2 [CF]6 | %8
w: ||||
 [EG][FA] [GB]2 [GB]2 [FA]2 | [EG]2 [CF]2 [FA]2 [Fc]2 | [Fc]2 [Fd]2 [Fc]2 [FA][EG] | F2 [EG]6 | %12
w: ||||
 [FA][CG] [CF]2 [FA]2 [Fc]2 | [Fd]2 [Ac][FA] [CF][EG] [FA]2 | [FB]2 [FA]2 [DG]2 [CF]2 | %15
w: |||
 [CE]2 [CF]6- | [CF]2 z2 z4 |] %17
w: ||
V:2
 A,2 A,2 C2 A,2 | F2 FC A,B, C2 | C2 C2 C2 C2 | C2 C6 | A,2 A,2 C2 A,2 | F2 FC[K:bass] A,B, C2 | %6
 C2 B,2 B,2 A,2 | G,2 A,6 | C2 C2 C2 C2 | C[K:bass]B, A,2 C2 A,2 | A,2 B,2 A,2 CB, | %11
 A,2[K:treble] C6 | CB, A,2 C2 A,2 | B,2 FC A,B, C2 | D2 C2[K:bass] B,2 A,2 | G,2 A,6- | %16
 A,2 z2 z4 |] %17
V:3
 F,2 F,2 F,2 F,2 | F,2 F,2 F,2 F,2 | A,2 z2 B,2 A,2 | G,2 F,6 | F,2 F,2 F,2 F,2 | F,2 F,2 F,2 F,2 | %6
 A,,2 B,,2 B,,2 C,2 | C,2 F,6 | C,2 E,2 C,2 F,2 | C,2 F,2 F,2 F,2 | F,2 F,2 F,2 F,2 | F,2 C,6 | %12
 C,2 F,2 F,2 F,2 | F,2 F,2 F,2 F,2 | F,2 F,2 B,,2 C,2 | C,2 F,6- | F,2 z2 z4 |] %17

